!!!OPR: String Quartet in C minor, Op. 51, No. 1
!!!OPS: Op. 51
!!!ONM: No. 1
!!!OMV: No. 2
!!!OTL: Romanze. Poco adagio
!!!COM: Brahms, Johannes
**kern	**dynam	**kern	**dynam	**kern	**dynam	**kern	**dynam
*Icello	*Icello	*Iviola	*Iviola	*Ivioln	*Ivioln	*Ivioln	*Ivioln
*staff4	*staff4	*staff3	*staff3	*staff2	*staff2	*staff1	*staff1
*clefF4	*clefF4	*clefC3	*clefC3	*clefG2	*clefG2	*clefG2	*clefG2
*k[b-e-a-d-]	*k[b-e-a-d-]	*k[b-e-a-d-]	*k[b-e-a-d-]	*k[b-e-a-d-]	*k[b-e-a-d-]	*k[b-e-a-d-]	*k[b-e-a-d-]
*M3/4	*M3/4	*M3/4	*M3/4	*M3/4	*M3/4	*M3/4	*M3/4
*MM72	*MM72	*MM72	*MM72	*MM72	*MM72	*MM72	*MM72
=1-	=1-	=1-	=1-	=1-	=1-	=1-	=1-
(8.C\L	p	(8.E-/L	p	(8.A-/L	p	4r	.
16E-\Jk)	.	16G/Jk)	.	16B-/Jk)	.	.	.
(8.E-\L	.	(8.G/L	.	(8.B-/L	.	4r	.
16A-\Jk)	.	16A-/Jk)	.	16c/Jk)	.	.	.
4A-\	.	4A-/	.	[4c/	.	8r	.
.	.	.	.	.	.	(8e-/	p
=2	=2	=2	=2	=2	=2	=2	=2
(8.AA-/L	.	(8.F/L	.	4c/]	.	8.f/L	.
16C/Jk)	.	16G/Jk)	.	.	.	16e-/Jk)	.
(8.C\L	.	(8.G/L	.	(8.c/L	.	(8.e-/L	.
16F\Jk)	.	16A-/Jk)	.	16d-/Jk)	.	16d-/Jk)	.
4F\	.	4A-/	.	4d-/	.	8d-/L	.
.	.	.	.	.	.	(8f/J	.
=3	=3	=3	=3	=3	=3	=3	=3
(8.FF/L	.	(8.D-/L	.	8r	.	8.a-/L	.
.	.	.	.	(8A-/	.	.	.
16AA-/Jk)	.	16E-/Jk)	.	.	.	16g/Jk)	.
(8.AA-/L	.	(8.E-/L	.	8.c/L	.	(8.g/L	.
16D-/Jk)	.	16F/Jk)	.	16d-/Jk)	.	16f/Jk)	.
(8D-\L	.	(8F/L	.	(8d-/L	.	(8f/L	.
8E-\J)	.	8A-/J)	.	8c/J)	.	8e-/J)	.
=4	=4	=4	=4	=4	=4	=4	=4
4.F\	<	4.A-/	<	(8.B-/L	<	4.dn/	.
.	.	.	.	16c-/Jk)	.	.	.
.	.	.	.	2c-/	.	.	.
8E-'\L	>	(8A-'/L	<	.	.	8e-/L	.
(8E-\	.	8A-'/	.	.	.	(8e-/	>
8F\J)	.	8A-'/J)	.	.	.	8d/J)	.
=5	=5	=5	=5	=5	=5	=5	=5
4.F\	.	4.A-/	.	(8.B-/L	.	4.dn/	.
.	.	.	.	16c-/Jk)	.	.	.
.	.	.	.	(4.B-/	.	.	.
8E-\	.	(8A-'/	.	.	.	8g/	.
(8E-\L	.	8A-'/L	.	.	.	(8g/L	.
8Dn\J)	.	8A-'/J)	.	8B-/)	.	8f/J)	.
=6	=6	=6	=6	=6	=6	=6	=6
(8E-/L	.	(4G/	.	([2B-/	.	(8g/	.
8GG/J)	.	.	.	.	.	4e-/	.
4BB-/	.	4F/	.	.	.	.	.
.	.	.	.	.	.	8dn/)	.
4E-\	.	4G/)	.	8B-/L]	.	([4e-/	.
.	.	.	.	8d-/J)	.	.	.
=7	=7	=7	=7	=7	=7	=7	=7
4r	.	(8.a-\L	p	(8.c/L	p	8.e-/L]	p
.	.	16b-\Jk)	.	16e-/Jk)	.	16g/Jk)	.
4r	.	(8.b-\L	.	(8.e-/L	.	(8.g/L	.
.	.	16cc\Jk)	.	16a-/Jk)	.	16a-/Jk)	.
8r	.	4cc\	.	4a-/	.	4a-/	.
*clefC4	*clefC4	*	*	*	*	*	*
(8e-\	.	.	.	.	.	.	.
=8	=8	=8	=8	=8	=8	=8	=8
8.f\L	.	(8.f\L	.	(8.a-/L	.	(8.a-\L	.
16e-\Jk)	.	16g\Jk)	.	16g/Jk)	.	16cc\Jk)	.
(8.e-\L	.	(8.g\L	.	(8.cc\L	.	(8.cc\L	.
16d-\Jk)	.	16a-\Jk)	.	16dd-\Jk)	.	16ff\Jk)	.
8d-\L	.	4a-\	.	4dd-\	.	4ff\	.
(8f\J	.	.	.	.	.	.	.
=9	=9	=9	=9	=9	=9	=9	=9
8.a-\L	.	(8.f\L	.	(8.a-/L	.	(8.dd-\L	.
16g\Jk)	.	16g\Jk)	.	16b-/Jk)	.	16ee-\Jk)	.
(8.g\L	.	(8.g\L	.	(8.b-\L	.	(8.ee-\L	.
16f\Jk)	.	16a-\Jk)	.	16dd-\Jk)	.	16aa-\Jk)	.
(8f\L	.	4a-\	.	(8dd-\L	.	(8aa-\L	.
8e-\J)	.	.	.	8cc\J)	.	8a-\J)	.
=10	=10	=10	=10	=10	=10	=10	=10
4.dn\	<	(4.f\	.	(8.b-\L	.	(4.a-/	.
.	.	.	.	16cc-\Jk)	<	.	.
.	.	.	.	2b-\	.	.	.
8e-\	>	4f\	<	.	.	4a-/	<
(8e-\L	.	.	.	.	.	.	.
8d\J)	.	8f\)	>	.	.	8a-/)	>
=11	=11	=11	=11	=11	=11	=11	=11
4.dn\	<	(4.f\	<	(8.b-\L	>	(4.a-/	<
.	.	.	.	16cc-\Jk)	<	.	.
.	.	.	.	(4.cc-\	.	.	.
8g\L	.	4e-\	.	.	.	4a-/	.
(8g\	>	.	.	.	.	.	.
8f\J)	.	8dn\)	>	[8b-\)	>	8a-/)	>
=12	=12	=12	=12	=12	=12	=12	=12
(8g\	>	(8e-/L	.	4b-\]	>	(4g/	.
4e-\	.	8G/J)	>	.	.	.	.
.	.	4B-/	.	(8a-/L	>	4f/	.
8dn\	.	.	.	8f/J	.	.	.
4e-\)	.	4E-/	.	8e-/L	.	4g/)	.
.	.	.	.	8d-/J)	.	.	.
=13	=13	=13	=13	=13	=13	=13	=13
2.r	.	(8.En/L	.	(8.c/L	.	([2g/	.
.	.	16G/Jk)	.	16dn/Jk)	.	.	.
.	.	(8.G/L	.	(8.d/L	.	.	.
.	.	16c/Jk)	.	16en/Jk)	.	.	.
.	.	4c\	.	4e/	.	8g/L]	.
.	.	.	.	.	.	8cc/J)	.
=14	=14	=14	=14	=14	=14	=14	=14
2.r	.	(8.En/L	.	(8.c/L	.	([2g/	.
.	.	16G/Jk)	.	16dn/Jk)	.	.	.
.	.	(8.G/L	.	(8.d/L	.	.	.
.	.	16c/Jk)	.	16en/Jk)	.	.	.
.	.	4c\	.	4e/	.	8g/L]	.
.	.	.	.	.	.	8cc/J)	.
=15	=15	=15	=15	=15	=15	=15	=15
*clefF4	*clefF4	*	*	*	*	*	*
2.EE-/	pp	(8.G/L	pp	(8.e-/L	pp	(4.dd-\	pp
.	.	16B-/Jk)	.	16f/Jk)	.	.	.
.	.	(8.B-\L	.	(8.f/L	.	.	.
.	.	.	.	.	.	4cc\	.
.	.	16e-\Jk)	.	16g/Jk)	.	.	.
.	.	4e-\	.	4g/	.	.	.
.	.	.	.	.	.	8b-\)	.
=16	=16	=16	=16	=16	=16	=16	=16
2EE-/	.	(8.G/L	.	(8.e-/L	.	(4.dd-\	.
.	.	16B-/Jk)	.	16f/Jk)	.	.	.
.	.	(8.B-\L	.	(8.f/L	.	.	.
.	.	.	.	.	.	4cc\	.
.	.	16e-\Jk)	.	16g/Jk)	.	.	.
(4DD-/	.	[4e-\	.	[4g/	.	.	.
.	.	.	.	.	.	8b-\	.
=17	=17	=17	=17	=17	=17	=17	=17
4CC/	.	(4e-\]	.	(4g/]	.	8a-/)	.
.	.	.	.	.	.	4a-/	.
4DD-/	<	4d-\	.	4f/	.	.	.
.	.	.	.	.	.	(4a-/	<
4EE-/	<	8c/L	<	8e-/L	.	.	.
.	.	8B-/J)	.	8d-/J)	.	8b-\)	.
=18	=18	=18	=18	=18	=18	=18	=18
4EEn/	.	4.A-/	.	4.c-/	.	(8cc-/L	.
.	.	.	.	.	.	8a-/	.
8FF/)	.	.	.	.	.	8dn/J)	.
(8DDn/L	.	(8c-\L	.	(8A-/L	.	(8f/L	.
8EE-/	.	8B-/	.	8G/	.	8e-/	.
8GG/J)	.	8E-/J)	.	8B-/J)	.	8d-/J)	.
=19	=19	=19	=19	=19	=19	=19	=19
(8.AA-/L	.	(8.E-/L	.	(8.A-/L	.	(8.c/L	.
16GG-/Jk)	.	16A-/Jk)	.	16cn/Jk)	.	16e-/Jk)	.
(8.GG-/L	.	([8.A-/L	.	(8.c/L	.	(8.e-/L	.
16FF/Jk)	<	16D-/Jk) 16A-/]	<	16d-/Jk)	<	16a-/Jk)	.
4FF/	.	4D-/ 4A-/	.	4d-/	.	(8a-/L	.
.	.	.	.	.	.	8d-/J)	.
=20	=20	=20	=20	=20	=20	=20	=20
8.EE-/L	.	8.E-/L	.	8.A-/L	.	8.c/L	.
16DD-/Jk	.	16G/Jk	.	16B-/Jk	.	16e-/Jk	.
8.DD-/L	.	8.G/L	.	8.B-/L	.	8.e-/L	.
16CC/Jk	.	16A-/Jk	.	16e-/Jk	.	16cc/Jk	.
8CC/L	.	4A-/	.	8c/L 8e-/	.	8cc/L	.
8DDn/J	.	.	.	8f/J	.	8f/J	.
=21	=21	=21	=21	=21	=21	=21	=21
(4EE-/	.	(4A-/	>	(4c/	.	(8a-/	.
.	.	.	.	.	.	4e-/	.
4E-\	>	4G/	.	4B-/	>	.	.
.	.	.	.	.	.	4d-/	.
4E-\)	.	4G/)	.	4d-/)	.	.	.
.	.	.	.	.	.	8B-/)	.
=22	=22	=22	=22	=22	=22	=22	=22
*clefC4	*clefC4	*	*	*	*	*	*
(8.c\L	<	(8.A-/L	.	4r	.	4r	.
16e-\Jk)	.	16G-/Jk)	<	.	.	.	.
(8.e-\L	.	(8.G-/L	.	(8.a-/L	.	(8.c/L	.
16a-\Jk)	.	16F/Jk)	.	16A-/Jk)	<	16d-/Jk)	<
(8a-\L	.	(8F/L	.	(8.A-/L	.	(8d-/L	.
8d-\J)	.	8F-/J)	.	.	.	8dd-/J)	.
.	.	.	.	16a-/Jk)	.	.	.
=23	=23	=23	=23	=23	=23	=23	=23
(8.c\L	.	(8.E-/L	.	(8.A-/L 8.a-/	.	(8.cc\L	.
16e-\Jk)	<	16D-/Jk)	<	16B-/Jk) 16g/	.	16ee-\Jk)	<
(8.e-\L	.	(8.D-/L	.	(8.B-/L 8.g/	.	(8.ee-\L	.
16cc\Jk)	.	16C/Jk)	.	16A-/Jk) 16a-/	.	16ccc\Jk)	.
(8cc\L	.	(8C/L	.	4A-/ 4a-/	.	(8ccc\L	.
8c\J)	.	8Dn/J)	.	.	.	8ff\J)	.
=24	=24	=24	=24	=24	=24	=24	=24
*clefF4	*clefF4	*	*	*	*	*	*
(4c\	>	(4E-/	>	(4a-/	>	(8aa-\	>
.	.	.	.	.	.	4ee-\	.
4B-\	>	4E-/	>	4g/	.	.	.
.	.	.	.	.	.	4dd-\	>
4G\)	.	4E-/)	.	4d-/)	.	.	.
.	.	.	.	.	.	8b-\)	.
=25	=25	=25	=25	=25	=25	=25	=25
4r	.	12r	.	4r	.	2.r	.
.	.	(12e-'\L	pp	.	.	.	.
.	.	12e-'\J	.	.	.	.	.
4r	.	12e-'\L	.	12r	pp	.	.
.	.	12dn'\	.	(12e-'/L	.	.	.
.	.	12d'\J	.	12e-'/J)	.	.	.
12r	.	12d'\L	.	(12e-'/L	.	.	.
(12E-'\L	pp	12B-'\	.	12d-'/	.	.	.
12E-'\J)	.	12B-'\J)	.	12d-'/J)	.	.	.
=26	=26	=26	=26	=26	=26	=26	=26
(12E-'\L	>	(12B-'/L	>	12d-/L	.	8r	.
12D-'\	.	12G'/	.	12B-/	.	.	.
.	.	.	.	.	.	4ee-\	pp
12D-'\J)	.	12G'/J)	.	12B-/J	.	.	.
12D-'/L	.	12G/L	.	12B-/L	.	.	.
12BB-'/	.	12E-/	.	12G/	.	.	.
.	.	.	.	.	.	4dd-\	>
12BB-'/J	.	12E-/J	.	12G/J	.	.	.
12BB-'/L	.	12E-/L	.	12G/L	.	.	.
12EE-'/	.	12G/	.	12d-/	.	.	.
.	.	.	.	.	.	8b-\	.
12EE-'/J	.	12G/J	.	12d-/J	.	.	.
=27	=27	=27	=27	=27	=27	=27	=27
12r	.	12r	.	12r	.	12r	.
(12A-'\L	<	(12e-'\L	<	(12c-'/L	.	(12ee-'\L	<
12A-'\J	.	12e-'\J	.	12c-'/J	<	12ee-'\J	.
12A-'\L	>	12e-'\L	.	12c-'/L	.	12ee-'\L	.
12A-'\	.	12f-'\	>	12d-'/	.	12dd-'\	>
12A-'\J)	.	12a-'\J)	.	12f-'/J)	.	12b-'\J)	.
12r	.	12r	.	12r	.	12r	.
(12A-'\L	>	(12f-'\L	>	(12d-'/L	.	(12dd-'\L	>
12A-'\J)	.	12a-'\J)	.	12en'/J)	.	12b-'\J)	.
=28	=28	=28	=28	=28	=28	=28	=28
12r	.	12r	.	12r	.	12r	.
(12A-'\L	>	(12a-'\L	>	(12e-'/L	.	(12cc-'\L	>
12A-'\J)	.	12e-'\J)	.	12c-'/J)	.	12a-'\J)	.
12r	.	12r	.	12r	.	12r	.
(12Dn'\L	>	(12fn'\L	>	(12B-'/L	.	(12b-'/L	>
12D'\J)	.	12f'\J)	.	12B-'/J)	.	12a-'/J)	.
12r	.	12r	.	12r	.	12r	.
(12E-'\L	>	(12e-'/L	>	(12B-'/L	.	(12g'/L	>
12E-'\J)	.	12G'/J)	.	12e-'/J)	.	12b-'/J)	.
=29	=29	=29	=29	=29	=29	=29	=29
12r	.	12r	.	12r	.	12r	.
(12BBn'/L	<	(12F#'/L	<	(12e-'/L	.	(12dd#'\L	<
12BB'/J	.	12F#'/J	.	12e-'/J	.	12dd#'\J	.
12BB'/L	.	12F#'/L	.	12e-'/L	.	12dd#'\L	>
12BB'/	>	12G'/	>	12en'/	.	12cc#'\	.
12BB'/J)	.	12c#'/J)	.	12g'/J)	.	12a#'\J)	.
12r	.	12r	.	12r	.	12r	.
(12BB'/L	.	(12G'/L	.	(12e-'/L	.	(12cc#'\L	.
12BB'/J)	>	12d-'/J)	.	12g'/J)	>	12a#'\J)	>
=30	=30	=30	=30	=30	=30	=30	=30
12r	.	12r	.	12r	.	12r	.
(12BBn'/L	>	(12d#'\L	>	(12f#'/L	>	(12bn'/L	.
12BB'/J)	.	12Bn'\J)	.	12d#'/J)	.	12f#'/J)	.
12r	.	12r	.	12r	.	12r	.
(12EEn'/L	>	(12A#'/L	>	(12c#'/L	>	(12a-'/L	.
12EE'/J)	.	12A#'/J)	.	12c#'/J)	.	12en'/J)	.
12r	.	12r	.	12r	.	12r	.
(12BB'/L	>	(12B'/L	>	(12e-'/L	>	(12d#'/L	.
12BB'/J)	.	12B'/J)	.	12e-'/J)	.	12f#'/J)	.
=31	=31	=31	=31	=31	=31	=31	=31
12r	.	12r	.	12r	.	12r	.
(12Bn'\L	<	(12d#'\L	<	(12f#'/L	.	([6dd#\	<
12B'\J	.	12d#'\J	<	12f#'/J	.	.	.
12B'\L	.	12d#'\L	.	12f#'/L	.	12dd#\]	.
12A#'\	.	12c#'\	.	12f#'/	.	[6ff#\	.
12A#'\J	.	12c#'\J	.	12f#'/J	.	.	.
12A#'\L	.	12c#'/L	.	12f#'/L	.	12ff#\]	.
12F#'\	.	12A#'/	.	12f#'/	.	6aa#\	.
12F#'\J)	.	12A#'/J)	.	12f#'/J)	.	.	.
=32	=32	=32	=32	=32	=32	=32	=32
12D#\L	f	12Bn/L	f	12f#/L	f	8fff#\L	f
12D#\	>	12B/	>	12f#/	>	.	.
.	.	.	.	.	.	8bbn\J	>
12D#\J	.	12B/J	.	12f#/J	.	.	.
12D#\L	.	12B/L	.	12f#/L	.	8aan\L	.
12D#\	.	12B/	.	12f#/	.	.	.
.	.	.	.	.	.	8bb\J	.
12D#\J	.	12B/J	.	12f#/J	.	.	.
12D#\L	.	12B/L	.	12f#/L	.	8aa\L	.
12En\	.	12B/	.	12en/	.	.	.
.	.	.	.	.	.	8gg\J)	.
12E\J	.	12B/J	.	12e/J	.	.	.
=33	=33	=33	=33	=33	=33	=33	=33
12En\L	p	12Bn/L	p	12en/L	p	12r	p
12E\	>	12B-/	>	12d-/	>	[6gg\	>
12E\J	.	12B-/J	.	12d-/J	.	.	.
12E\L	.	12B-/L	.	12d-/L	.	12gg\]	.
12E-\	.	12c-/	.	12e-/	.	[6ff#\	.
12E-\J	.	12c-/J	.	12e-/J	.	.	.
12E-\L	.	12Bn\L	.	12e-/L	.	12ff#\]	.
12c-\	.	12e-\	.	12g-/	.	6an/	.
12c-\J	.	12e-\J	.	12g-/J	.	.	.
=34	=34	=34	=34	=34	=34	=34	=34
12c-\L	>	12e-\L	>	12g-/L	>	8r	.
12B-\	.	12e-\	.	12g-/	.	.	.
.	.	.	.	.	.	(8b-/L	.
12B-\J	.	12e-\J	.	12g-/J	.	.	.
12B-\L	.	12e-\L	.	12g-/L	.	8g-/	>
12BB-\	.	12A-\	.	12dn/	.	.	.
.	.	.	.	.	.	8fn/J	.
12BB-\J	.	12A-\J	.	12d/J	.	.	.
12BB-/L	.	12A-/L	.	12d/L	.	8f/L	.
12EE-/	.	12G-/	.	12B-/	.	.	.
.	.	.	.	.	.	8e-/J)	.
12EE-/J	.	12G-/J	.	12B-/J	.	.	.
=35	=35	=35	=35	=35	=35	=35	=35
12r	.	12r	.	12r	.	12r	.
(12EE-'/L	<	(12Gn'/L	.	(12e-'/L	<	(12ee-'\L	.
12EE-'/J	.	12G'/J	<	12e-'/J	.	12ee-'\J	.
12EE-'/L	.	12G'/L	.	12e-'/L	.	12ee-'\L	>
12EE-'/	>	12A-'/	>	12f-'/	.	12dd-'\	.
12EE-'/J)	.	12d-'/J)	.	12a-'/J)	.	12b-'\J)	.
12r	.	12r	.	12r	.	12r	.
(12EE-'/L	.	(12A-'/L	.	(12f-'/L	.	(12dd-'\L	>
12EE-'/J)	>	12d-'/J)	.	12a-'/J)	>	12b-'\J)	.
=36	=36	=36	=36	=36	=36	=36	=36
12r	.	12r	.	12r	.	12r	.
(12EE-'/L	>	(12A-'/L	>	(12e-'/L	.	(12cc-'\L	>
12EE-'/J)	.	12c-'/J)	.	12e-'/J)	.	12a-'\J)	.
12r	.	12r	.	12r	.	12r	.
(12EE-'/L	.	(12G'/L	.	(12d-'/L	.	(12b-'/L	.
12EE-'/J)	>	12G'/J)	>	12d-'/J)	.	12f-'/J)	>
12r	.	12r	.	12r	.	12r	.
(12EE-'/L	.	(12A-'/L	.	(12c-'/L	>	(12f-'/L	.
12EE-'/J)	>	12A-'/J)	>	12c-'/J)	.	12e-'/J)	.
=37	=37	=37	=37	=37	=37	=37	=37
12r	.	12r	.	12r	.	12r	.
(12EEn'/L	<	(12Bn'/L	<	(12g#'/L	<	(12gg#'\L	<
12EE'/J	.	12B'/J	.	12g#'/J	.	12gg#'\J	.
12EE'/L	>	12B'\L	.	12g#'/L	.	12gg#'\L	.
12EE'/	>	12cn'\	.	12an'/	>	12ff#'\	>
12EE'/J)	.	12f#'\J)	.	12ccn'/J)	.	12dd#'\J)	.
12r	.	12r	.	12r	.	12r	.
(12EE'/L	>	(12c'\L	>	(12a'\L	>	(12ff#'\L	>
12EE'/J)	.	12f#'\J)	.	12cc'\J)	.	12dd#'\J)	.
=38	=38	=38	=38	=38	=38	=38	=38
12r	.	12r	.	12r	.	12r	.
(12EEn'/L	>	(12Bn'\L	>	(12g#'/L	.	(12een'\L	>
12EE'/J)	.	12en'\J)	.	12g#'/J)	.	12bn'\J)	.
12r	.	12r	.	12r	.	12r	.
(12AAn'/L	>	(12e-'\L	>	(12f#'/L	>	(12cc'\L	>
12AA'/J)	.	12e-'\J)	.	12f#'/J)	.	12an'\J)	.
12r	.	12r	.	12r	.	12r	.
(12En'\L	>	(12en'\L	>	(12g#'/L	>	(12g#'/L	>
12E'\J)	.	12e'\J)	.	12g#'/J)	.	12b'/J)	.
=39	=39	=39	=39	=39	=39	=39	=39
*clefC4	*clefC4	*	*	*	*	*	*
12r	.	12r	.	12r	.	12r	.
([6G#/	<	(12en'\L	<	(12g#'/L	.	(12bn'\L	<
.	.	12e'\J	.	12g#'/J	<	12b'\J	.
12G##/	.	12e'\L	.	12g#'/L	.	12b'\L	.
[6Bn\	.	12e-'\	.	12f#'/	.	12b'\	.
.	.	12e-'\J	.	12f#'/J	.	12b'\J	.
12B\]	.	12e-'\L	.	12f#'/L	.	12b'/L	.
6d#\)	.	12Bn'\	.	12d#'/	.	12f#'/	.
.	.	12B'\J)	.	12d#'/J)	.	12f#'/J)	.
=40	=40	=40	=40	=40	=40	=40	=40
(8bn\L	f	12G#/L	f	12en/L	f	12bn\L	f
.	.	12G#/	>	12e/	>	12b\	>
8en\J	>	.	.	.	.	.	.
.	.	12G#/J	.	12e/J	.	12b\J	.
8dn\L	.	12G#/L	.	12e/L	.	12b\L	.
.	.	12G#/	.	12e/	.	12b\	.
8e\J	.	.	.	.	.	.	.
.	.	12G#/J	.	12e/J	.	12b\J	.
8d\L	.	12G#/L	.	12e/L	.	12b/L	.
.	.	12An/	.	12e/	.	12en/	.
8cn\J)	.	.	.	.	.	.	.
.	.	12A/J	.	12e/J	.	12e/J	.
=41	=41	=41	=41	=41	=41	=41	=41
*clefF4	*clefF4	*	*	*	*	*	*
12r	p	12An\L	.	12en/L	.	12r	.
12An\L	>	12f#\	p	12d#/	.	([6cc\	p
12A\J	.	12f#\J	.	12d#/J	>	.	.
12A\L	>	12f#\L	.	12d#/L	.	12cc\]	>
12G#\	.	12g#\	.	12e/	.	[6bn\	.
12G#\J	.	12g#\J	.	12e/J	.	.	.
12G#\L	.	12g#\L	.	12e/L	.	12b\]	.
12En\	.	12G#\	.	12Bn/	.	6dn/)	.
12E\J	.	12G#\J	.	12B/J	.	.	.
=42	=42	=42	=42	=42	=42	=42	=42
12En\L	.	12A-/L	>	12c-/L	.	8r	.
12E-\	>	12A-/	.	12c-/	.	.	.
.	.	.	.	.	.	(8e-/	.
12E-\J	.	12A-/J	.	12c-/J	.	.	.
12E-/L	.	12A-/L	.	12c-/L	.	8c-/L	.
12EE-/	.	12Gn/	.	12d-/	.	.	.
.	.	.	.	.	.	8B-/J	.
12EE-/J	.	12G/J	.	12d-/J	.	.	.
12r	.	12G/L	.	12d-/L	.	8B-/L	.
12AA-/L	>	12E-/	.	12c-/	.	.	.
.	.	.	.	.	.	8A-/J)	.
12AA-/J	.	12E-/J	.	12c-/J	.	.	.
=43	=43	=43	=43	=43	=43	=43	=43
12r	.	4r	.	2.r	.	4r	.
(12BB-/L	>	.	.	.	.	.	.
12BB-/J)	.	.	.	.	.	.	.
12r	.	(8.G#/L	.	.	.	(8.en/L	.
(12BBn/L	>	.	.	.	.	.	.
12BB/J)	.	.	.	.	.	.	.
.	.	16Bn/Jk)	.	.	.	16f#/Jk)	.
4r	.	(8.B\L	.	.	.	(8.f#/L	.
.	.	16en\Jk)	.	.	.	16g#/Jk)	.
=44	=44	=44	=44	=44	=44	=44	=44
12r	.	2en\	.	4r	.	[2g#/	.
(12C-/L	.	.	.	.	.	.	.
12C-/J)	>	.	.	.	.	.	.
12r	.	.	.	4r	.	.	.
(12D-\L	.	.	.	.	.	.	.
12D-\J)	>	.	.	.	.	.	.
12r	.	(8.e-\L	.	(8.c/L	.	(8.a-/L	.
(12E-\L	>	.	.	.	.	.	.
12E-\J)	.	.	.	.	.	.	.
.	.	16g\Jk)	.	16e-/Jk)	.	16b-/Jk)	.
=45	=45	=45	=45	=45	=45	=45	=45
4r	.	(8.g\L	.	(8.e-/L	.	(8.b-\L	.
.	.	16a-\Jk)	.	16a-/Jk)	.	16cc\Jk)	.
12r	.	2a-\	.	2a-/	.	[2cc\	.
(12E-\L	>	.	.	.	.	.	.
12E-\J)	.	.	.	.	.	.	.
12r	.	.	.	.	.	.	.
(12F\L	>	.	.	.	.	.	.
12F\J)	.	.	.	.	.	.	.
=46	=46	=46	=46	=46	=46	=46	=46
12r	.	(8.e-\L	.	(8.g/L	.	(8.cc\L]	.
(12G\L	>	.	.	.	.	.	.
12G\J)	.	.	.	.	.	.	.
.	.	16g\Jk)	<	16bn/Jk)	<	16ddn\Jk)	<
4r	.	4g\	.	(8.b\L	.	(8.dd\L	.
.	.	.	.	16cc\Jk)	.	16ee-\Jk)	.
4r	.	(8.g\L	.	(8.cc\L	.	(8.ee-\L	.
.	.	16b-\Jk)	.	16dd-\Jk)	.	16gg\Jk)	.
=47	=47	=47	=47	=47	=47	=47	=47
12r	.	(4b-\	f	(4dd-\	f	(4gg\	f
12EE-/L	f	.	.	.	.	.	.
12EE-/J	.	.	.	.	.	.	.
12r	>	8cc\L	>	8ee-\L	>	[2ee-\)	>
12EE-/L	.	.	.	.	.	.	.
.	.	8b-\	.	8dd-\J	.	.	.
12EE-/J	.	.	.	.	.	.	.
8r	.	8g\	>	8b-/L	>	.	.
8EE-/	>	8f\J	.	8a-/J	.	.	.
=48	=48	=48	=48	=48	=48	=48	=48
8r	.	8e-/L	.	8g/L	.	2.ee-\_	>
8EE-/	.	8d-/	.	8f/	.	.	.
4r	.	8c/	.	8e-/	.	.	.
.	.	8B-/	.	[8d-/	.	.	.
8EE-/	.	8G/	.	8d-/]	.	.	.
8r	.	8D-/J)	.	8B-/J)	.	.	.
=49	=49	=49	=49	=49	=49	=49	=49
(8.C\L	p	(8.E-/L	.	(8.A-/L	p	(12ee-\L]	p
.	.	.	.	.	.	12ddn\	.
.	.	.	.	.	.	[12ee-\J	.
16E-\Jk)	.	16G/Jk)	p	16B-/Jk)	.	.	.
(8.E-\L	.	(8.G/L	.	(8.B-/L	.	12ee-\L]	.
.	.	.	.	.	.	12dd\	.
.	.	.	.	.	.	[12ee-\J)	.
16A-\Jk)	.	16A-/Jk)	.	16c/Jk)	.	.	.
4A-\	.	4A-/	.	4c/	.	12ee-\L]	.
.	.	.	.	.	.	(12een\	.
.	.	.	.	.	.	12ff\J)	.
=50	=50	=50	=50	=50	=50	=50	=50
(8.AA-/L	.	(8.F/L	.	(4.c/	.	(12ff\L	.
.	.	.	.	.	.	12ddn\	.
.	.	.	.	.	.	12ee-\J	.
16C/Jk)	.	16G/Jk)	.	.	.	.	.
(8.C\L	.	(8.G/L	.	.	.	12ee-\L	.
.	.	.	.	.	.	12cc\	.
.	.	.	.	4A-/	.	.	.
.	.	.	.	.	.	[12dd-\J)	.
16F\Jk)	.	16A-/Jk)	.	.	.	.	.
(8F\L	.	(8A-/L	.	.	.	12dd-\L]	.
.	.	.	.	.	.	(12een\	.
8D-\J)	.	8d-/J)	.	8a-/)	.	.	.
.	.	.	.	.	.	12ff\J	.
=51	=51	=51	=51	=51	=51	=51	=51
(8.FF/L	.	(8.D-/L	.	2.A-/ 2.a-/	.	12bb-\L	.
.	.	.	.	.	.	12gg\	.
.	.	.	.	.	.	12aa-\J)	.
16AA-/Jk)	.	16E-/Jk)	.	.	.	.	.
12AA-/L	.	(12E-/L	.	.	.	(12gg\L	.
12C/	.	12A-/)	.	.	.	12een\	.
12D-/J	.	12A-/J	.	.	.	12ff\J)	.
(8D-\L	.	(12A-/L	.	.	.	(12ff\L	.
.	.	12d-/)	.	.	.	12a-\	.
8E-\J)	.	.	.	.	.	.	.
.	.	12c/J	.	.	.	12ee-\J)	.
=52	=52	=52	=52	=52	=52	=52	=52
(4.F\	<	(12B-'/L	.	(12A-'/L 12a-'/	.	(12ee-\L	.
.	.	12c-'/J)	<	12A-'/J) 12a-'/	.	12cc#\	<
.	.	12r	.	12r	.	12ddn\J)	.
.	.	(12B-'/L	.	(12A-'/L 12a-'/	.	12r	.
.	.	12c-'/J)	.	12A-'/J) 12a-'/	.	12een'\L	.
8E-\)	.	.	.	.	.	.	.
.	.	12r	.	12r	.	12ff'\J	.
(8E-\L	.	(12B-'\L	.	(12a-'/L	.	12r	.
.	.	12f'\J)	.	12b-'/J)	.	12gg'\L	.
8Dn\J)	.	.	.	.	.	.	.
.	.	12r	.	12r	.	12aa-'\J	.
=53	=53	=53	=53	=53	=53	=53	=53
4.F\	.	(12B-'/L	.	(12A-'/L 12a-'/	.	(12ee-\L	.
.	.	12c-'/J)	.	12A-'/J) 12a-'/	.	12cc#\	.
.	.	12r	.	12r	.	12ddn\J)	.
.	.	(12B-'/L	.	(12A-'/L 12a-'/	.	12r	.
.	.	12c-'/J)	.	12A-'/J) 12a-'/	.	(12gg'\L	.
8E-\L	.	.	.	.	.	.	.
.	.	12r	.	12r	.	12aa-'\J)	.
8Dn/	.	(12B-'\L	.	(12a-'/L	.	12r	.
.	.	12b-'\J)	.	12f'/J)	.	(12bb-'\L	.
8AA-/J	.	.	.	.	.	.	.
.	.	12r	.	12r	.	12ccc-'\J)	.
=54	=54	=54	=54	=54	=54	=54	=54
4GG/	>	(12B-'\L 12b-'\	.	(12d-'/L	.	(12bb-\L	>
.	.	12B-'\J) 12b-'\	.	12e-'/J)	>	12gg\	.
.	.	12r	.	12r	.	[12b-\J	.
4BB-/	.	(12B-'/L	.	(12en'/L	.	12b-/L]	.
.	.	12B-'/J)	.	12f'/J)	.	12a-/	.
.	.	12r	.	12r	.	[12dn/J	.
4E-\	.	(12B-'\L	.	(12g'/L	.	16d/LL]	.
.	.	.	.	.	.	16e-/	.
.	.	12d-'\J)	.	12e-'/J)	.	.	.
.	.	.	.	.	.	16g/	.
.	.	12r	.	12r	.	.	.
.	.	.	.	.	.	16b-/JJ)	.
=55	=55	=55	=55	=55	=55	=55	=55
4r	.	(8.c\L	.	(8.a-/L	.	(16ee-\LL	.
.	.	.	.	.	.	16ddn\	.
.	.	.	.	.	.	16ee-\	.
.	.	16e-\Jk)	.	16b-/Jk)	.	[16e-\JJ	.
4r	.	(8.g\L	.	(8.b-\L	.	16e-\LL]	.
.	.	.	.	.	.	16dn\	.
.	.	.	.	.	.	16e-\	.
.	.	16a-\Jk)	.	16cc\Jk)	.	[16ee-\JJ)	.
8r	.	4a-\	.	[4cc\	.	16ee-\LL]	.
.	.	.	.	.	.	(16a-\	.
*clefC4	*clefC4	*	*	*	*	*	*
(8e-\	.	.	.	.	.	16cc\	.
.	.	.	.	.	.	16ee-\JJ	.
=56	=56	=56	=56	=56	=56	=56	=56
8.f\L	.	(16A-\LL	.	8.cc/L]	.	16aa-\LL	.
.	.	16c\	.	.	.	16gg\	.
.	.	16f\	.	.	.	16aa-\	.
16e-\Jk)	.	16g\JJ)	.	(16c/Jk	.	[16a-\JJ	.
(8.e-\L	.	(8.g\L	.	16e-/LL	.	16a-\LL]	.
.	.	.	.	16g/	.	16g\	.
.	.	.	.	16cc/	.	16a-\	.
16d-\Jk)	.	16f\Jk)	.	16dd-/JJ)	.	[16aa-\JJ)	.
8d-\L	.	(8.f/L	.	(8.dd-/L	.	16aa-\LL]	.
.	.	.	.	.	.	(16dd-\	<
(8f\J	<	.	.	.	.	16ff\	.
.	.	16F/Jk)	<	16d-/Jk)	<	16aa-\JJ	.
=57	=57	=57	=57	=57	=57	=57	=57
8.a-\L	.	(16F/LL	.	8.d-/L	.	16ddd-\LL	.
.	.	16A-/	.	.	.	16ccc\	.
.	.	16d-/	.	.	.	16ddd-\	.
16g\Jk)	.	16e-/JJ)	.	(16G/Jk	.	16ee-\JJ)	.
(8.g\L	.	(16e-/LK	.	16B-/LL	.	(16eee-\LL	.
.	.	8E-/	.	16e-/	.	16dddn\	.
.	.	.	.	16g/	.	16eee-\	.
16f\Jk)	.	16D-/Jk)	.	16a-/JJ)	.	16ff\JJ)	.
8f\L	.	8D-/L	.	(16a-\LK	.	(16fff\LL	.
.	.	.	.	8dd-\	.	16aa-\	.
8e-\J	.	8E-/J	.	.	.	16aaa-\	.
.	.	.	.	16cc\Jk)	.	16aa-\JJ)	.
=58	=58	=58	=58	=58	=58	=58	=58
(4.dn\	.	4.F/	.	(16b-\LL	.	(12aaa-\L	.
.	.	.	.	16ddn\	.	.	.
.	.	.	.	.	.	12ggg\	.
.	.	.	.	16ff\	.	.	.
.	.	.	.	.	.	[12aaa-\J)	.
.	.	.	.	16bb-\JJ)	.	.	.
.	.	.	.	(6ccc-\	.	12aaa-\L]	.
.	.	.	.	.	.	(12fff\	.
8e-\)	.	8E-/	.	.	.	.	.
.	.	.	.	12cc-\	.	[12aa-\J	.
(8e-\L	.	(8E-/L	.	6b-\	.	12aa-\L]	.
.	.	.	.	.	.	12gg\	.
8d\J)	.	8F/J)	.	.	.	.	.
.	.	.	.	12cc-\)	.	12aa-\J)	.
=59	=59	=59	=59	=59	=59	=59	=59
(4.dn\	<	4.F/	.	(16b-\LL	.	(12aaa-\L	.
.	.	.	.	16ddn\	.	.	.
.	.	.	.	.	.	12ggg\	.
.	.	.	.	16ff\	.	.	.
.	.	.	.	.	.	[12aaa-\J)	.
.	.	.	.	16bb-\JJ)	.	.	.
.	.	.	.	(6ccc-\	.	12aaa-\L]	.
.	.	.	.	.	.	(12fff\	.
8g\)	.	8E-/	.	.	.	.	.
.	.	.	.	12cc-\	.	[12aa-\J	.
(8g\L	.	(8E-/L	.	6b-\	.	12aa-\L]	.
.	.	.	.	.	.	12bb-\	.
8f\J)	.	8Dn/J)	.	.	.	.	.
.	.	.	.	12a-/)	.	[12ccc-\J)	.
=60	=60	=60	=60	=60	=60	=60	=60
(8g\	>	(8E-/L	>	(4g/	>	12ccc-\L]	.
.	.	.	.	.	.	(12aan\	>
4e-\	.	8G/J	.	.	.	.	.
.	.	.	.	.	.	[12bb-\J	.
.	.	4B-/	.	8f/L	.	12bb-\L]	.
.	.	.	.	.	.	12aa-\	.
8dn\	.	.	.	8a-/J	.	.	.
.	.	.	.	.	.	12ff\J)	.
4e-\)	.	4b-\)	.	4g/)	.	(16ee-\LL	.
.	.	.	.	.	.	16gg\	p
.	.	.	.	.	.	16bb-\	.
.	.	.	.	.	.	16eee-\JJ	.
=61	=61	=61	=61	=61	=61	=61	=61
*clefF4	*clefF4	*	*	*	*	*	*
4r	.	4r	.	4r	.	2ggg\)	.
4c'\	.	4r	.	(16en/LL	p	.	.
.	.	.	.	16g/	.	.	.
.	.	.	.	16cc/	.	.	.
.	.	.	.	16een/JJ	.	.	.
4G'\	.	(16Bn\LL	.	4gg\)	.	(16dn/LL	.
.	.	16dn\	.	.	.	16g/	.
.	.	16g\	.	.	.	16bn/	.
.	.	16bn\JJ	.	.	.	16ddn/JJ	.
=62	=62	=62	=62	=62	=62	=62	=62
4r	p	2cc\)	.	(16een\LL	.	4gg\)	.
.	.	.	.	16gg\	.	.	.
.	.	.	.	16ccc\	.	.	.
.	.	.	.	16eeen\JJ	.	.	.
4C'/	.	.	.	4ggg\)	.	(16en/LL	.
.	.	.	.	.	.	16g/	.
.	.	.	.	.	.	16cc/	.
.	.	.	.	.	.	16een/JJ	.
4GG'/	.	(16Bn\LL	.	(16dn/LL	.	4gg\)	.
.	.	16dn\	.	16g/	<	.	.
.	.	16g\	.	16bn/	.	.	.
.	.	16bn\JJ	.	16ddn/JJ	.	.	.
=63	=63	=63	=63	=63	=63	=63	=63
4EE-/	.	4cc\)	.	2gg\)	.	(16ee-\LL	<
.	.	.	.	.	.	16gg\	.
.	.	.	.	.	.	16bb-\	.
.	.	.	.	.	.	16eee-\JJ	.
*	*	*clefG2	*clefG2	*	*	*	*
4E-\	.	(16e-/LL	.	.	.	4ggg\	.
.	.	16g/	<	.	.	.	.
.	.	16b-/	.	.	.	.	.
.	.	16ee-/JJ	.	.	.	.	.
4r	.	8gg\L)	.	(4d-/	.	4bbb-\	.
.	.	[8ee-\J	.	.	.	.	.
=64	=64	=64	=64	=64	=64	=64	=64
2.r	.	(8ee-\L]	.	(4c/)	.	12bbb-\L)	>
.	.	.	.	.	.	(12ggg\	.
.	.	8a-\J)	.	.	.	.	.
.	.	.	.	.	.	12aaa-\J	.
.	.	4r	.	4d-/	>	12ggg\L	.
.	.	.	.	.	.	12eeen\	.
.	.	.	.	.	.	12fff\J	.
*	*	*clefC3	*clefC3	*	*	*	*
.	.	(4D-/	.	4f/	.	12ddd-\L	.
.	.	.	.	.	.	12aa-\	.
.	.	.	.	.	.	12ff\J)	.
=65	=65	=65	=65	=65	=65	=65	=65
4r	.	4C/	.	4e-/	p	(12bb-\L	.
.	.	.	.	.	.	12gg\	p
.	.	.	.	.	.	12aa-\J)	.
4r	.	4D-/	.	4A-/)	.	(12gg\L	.
.	.	.	.	.	.	12een\	.
.	.	.	.	.	.	12ff\J	.
(4DD-/	.	4F/	.	4r	.	12dd-/L	.
.	.	.	.	.	.	12a-/	.
.	.	.	.	.	.	12f/J)	.
=66	=66	=66	=66	=66	=66	=66	=66
4CC/	.	4E-/	.	2.r	.	(12b-/L	.
.	.	.	.	.	.	12g/	.
.	.	.	.	.	.	12a-/J)	.
4DD-/	.	4.A-/	.	.	.	(12g-/L	.
.	.	.	.	.	.	12e-/	.
.	.	.	.	.	.	12f-/J)	.
4EEn/)	.	.	.	.	.	(12d-/L	.
.	.	.	.	.	.	12A-/	.
.	.	8D-/)	.	.	.	.	.
.	.	.	.	.	.	12B-/J)	.
=67	=67	=67	=67	=67	=67	=67	=67
(12AA-/L	.	(8.E-/L	.	(8.A-/L	.	(8.c/L	.
12GG/	.	.	.	.	.	.	.
12AA-/J)	.	.	.	.	.	.	.
.	.	16A-/Jk)	.	16c/Jk)	.	16e-/Jk)	.
(12GG-/L	<	(8.A-/L	<	(8.c/L	<	(8.e-/L	.
12FFn/	<	.	.	.	.	.	.
12GG-/J)	.	.	.	.	.	.	.
.	.	16E-/Jk)	.	16A-/Jk)	.	16a-/Jk)	.
4FF/	.	(12E-/L	.	4A-/	.	(8a-/L	.
.	.	12C/	.	.	.	.	.
.	.	.	.	.	.	8d-/J)	.
.	.	12D-/J)	.	.	.	.	.
=68	=68	=68	=68	=68	=68	=68	=68
12EE-/L	.	(8.E-/L	.	(8.A-/L	.	(8.c/L	.
12DDn/	.	.	.	.	.	.	.
12EE-/J	.	.	.	.	.	.	.
.	.	16G/Jk)	.	16B-/Jk)	.	16e-/Jk)	.
(12DD-/L	.	(8.G/L	.	(8.B-/L	.	(8.e-/L	.
12CC/	.	.	.	.	.	.	.
12DD-/J)	.	.	.	.	.	.	.
.	.	16B-/Jk)	.	16e-/Jk)	.	16cc/Jk)	.
(8CC/L	.	(12B-/L	.	(8e-/L	.	(8cc/L	.
.	.	12G/	.	.	.	.	.
8DDn/J)	.	.	.	8c/J)	.	8f/J)	.
.	.	12A-/J)	.	.	.	.	.
=69	=69	=69	=69	=69	=69	=69	=69
4EE-/	>	(4A-/	>	(4c/	>	(8a-/	.
.	.	.	.	.	.	4e-/	.
4E-\	>	4G/	.	4B-/	.	.	.
.	.	.	.	.	.	4d-/	.
4E-\	.	4G/)	.	4d-/)	.	.	.
.	.	.	.	.	.	8B-/)	.
=70	=70	=70	=70	=70	=70	=70	=70
*clefC4	*clefC4	*	*	*	*	*	*
(8.c\L	.	(8.A-/L	.	4r	.	12r	.
.	.	.	.	.	.	(12bn\L	.
.	.	.	.	.	.	12cc\J	<
16e-\Jk)	<	16G-/Jk)	<	.	.	.	.
(8.e-\L	.	(8.G-/L	.	(8.c/L 8.a-/	.	12ddn\L	.
.	.	.	.	.	.	12ee-\	.
.	.	.	.	.	.	[12aa-\J	.
16a-\Jk)	.	16F/Jk)	<	16e-/Jk)	.	.	.
(8a-\L	.	8F/L	.	(12e-/L	.	12aa-\L]	.
.	.	.	.	12c/	.	12ff\	.
8d-\J)	.	8F-/J	.	.	.	.	.
.	.	.	.	12d-/J)	.	12dd-\J)	.
=71	=71	=71	=71	=71	=71	=71	=71
(8.c\L	<	(8.E-/L	<	(8.A-/L 8.a-/	.	(12bn\L	<
.	.	.	.	.	.	12cc\	.
.	.	.	.	.	.	12ee-\J	.
16e-\Jk)	.	16D-/Jk)	.	16B-/Jk) 16g/	.	.	.
(8.e-\L	.	(8.D-/L	.	(8.B-/L 8.g/	.	12gg\L	.
.	.	.	.	.	.	12bb-\	.
.	.	.	.	.	.	[12eee-\J	.
16cc\Jk)	.	16C/Jk)	.	16b-/Jk)	.	.	.
(8cc\L	.	(8C/L	.	(12b-/L	.	12eee-\L]	.
.	.	.	.	12g/)	.	12ccc\	.
8a-\J)	.	8Dn/J)	.	.	.	.	.
.	.	.	.	12a-/J 12cc/	.	12ff\J)	.
=72	=72	=72	=72	=72	=72	=72	=72
(4e-\	>	(4E-/	>	4a-\ 4cc\	.	(8aa-\	>
.	.	.	.	.	.	4ee-\	.
4d-\	.	4E-/	>	4g/ 4b-/	.	.	.
.	.	.	.	.	.	4dd-\	.
4B-\)	.	4E-/)	.	4g/	.	.	.
.	.	.	.	.	.	8b-\)	.
=73	=73	=73	=73	=73	=73	=73	=73
*clefF4	*clefF4	*	*	*	*	*	*
4E-\	.	8r	.	4e-/	.	4B-/ 4g/	.
.	.	(4e-\	.	.	.	.	.
4E-\	>	.	.	4g/	.	4d-/ 4b-/	.
.	.	4d-\	.	.	.	.	.
4r	.	.	.	4r	>	4r	>
.	.	[8B-/)	>	.	.	.	.
=74	=74	=74	=74	=74	=74	=74	=74
4AA-/	.	8B-/]	.	4e-/	.	4cc\	.
.	.	4A-/	.	.	.	.	.
4AA-\ 4G-\	.	.	.	4c/ 4a-/	.	4ee-\	.
.	.	4G-/	.	.	.	.	.
4r	.	.	.	4r	.	4r	.
.	.	8E-/	.	.	.	.	.
=75	=75	=75	=75	=75	=75	=75	=75
12r	.	12r	.	12r	.	12r	.
(12AA-'/L	<	(12A-'/L	<	(12c'/L	<	(12a-'/L	.
12AA-'/J	.	12A-'/J	.	12c'/J	.	12a-'/J	.
12AA-'/L	>	12A-'/L	.	12c'/L	.	12a-'/L	.
12AA-'/	.	12An'/	>	12d-'/	>	12g-'/	.
12AA-'/J)	.	12d-'/J)	.	12e-'/J)	.	12e-'/J)	.
12r	.	12r	.	12r	.	12r	.
(12AA-'/L	.	(12c'\L	.	(12e-'/L	.	(12a-'/L	.
12AA-'/J	.	12c'\J	.	12e-'/J	.	12a-'/J	.
=76	=76	=76	=76	=76	=76	=76	=76
12AA-'/L	<	12c'/L	<	12e-'/L	<	12a-'\L	.
12GG-'/	.	12c#'/	.	12e-'/	.	12an'\	.
12EE-'/J)	.	12An'/J)	.	12f#'/J)	.	12cc#'\J)	.
12r	.	12r	.	12r	.	12r	.
(12EEn/L	>	(12G#/L	>	(12g#/L	>	(12bn\L	>
12EE/J)	.	12G#/J)	.	12g#/J)	.	12b\J)	.
12r	.	12r	.	12r	.	12r	.
(12FF#/L	.	(12A/L	>	(12d#/L	.	(12a/L	>
12FF#/J)	>	12A/J)	>	12d#/J)	.	12a/J)	.
=77	=77	=77	=77	=77	=77	=77	=77
12r	.	12r	.	12r	.	8r	.
12GG#/L	.	12Bn/L	.	12en/L	.	.	.
.	.	.	.	.	.	(8g#/L	.
12GG#/J	<	12B/J	<	12e/J	<	.	.
12GG#/L	.	12B/L	.	12e/L	.	8bn/	.
12AAn/	.	12c#/	.	12f#/	.	.	.
.	.	.	.	.	.	8an/	.
12AA/J	.	12c#/J	.	12f#/J	.	.	.
12AA/L	.	12c#\L	.	12f#/L	.	8f#/J)	.
12BBn/	.	12f#\	.	12an/	.	.	.
.	.	.	.	.	.	8dd#\	.
12BB/J	.	12f#\J	.	12a/J	.	.	.
=78	=78	=78	=78	=78	=78	=78	=78
12BBn/L	>	12d#\L	>	12an/L	>	(8ff#\L	.
12C#/	.	12en\	.	12a/	.	.	.
.	.	.	.	.	.	8een\	.
12C#/J	.	12e\J	.	12a/J	.	.	.
12C#/L	.	12e\L	.	12a/L	.	8cc#\	.
12D#/	.	12Bn\	.	12f#/	.	.	.
.	.	.	.	.	.	8an\	.
12D#/J	.	12B\J	.	12f#/J	.	.	.
12D#\L	.	12B/L	.	12f#/L	.	8g##\	.
12En\	.	12B/	.	12en/	.	.	.
.	.	.	.	.	.	8g#\J)	.
12E\J	.	12A-/J	.	12e-/J	.	.	.
=79	=79	=79	=79	=79	=79	=79	=79
(12En'\L	<	12A-'/L	<	(12e-'/L	.	12r	.
12F'\	.	12A-'/	<	12dn'/	<	(12b-'\L	.
12F'\J	.	12A-'/J	.	12d'/J)	.	12b-'\J	.
12F'\L	>	12A-'/L	>	(12d'/L	.	12b-'/L	.
12F'\	.	12c-'/	.	12e-'/	>	12a-'/	.
12F'\J)	.	12c-'/J	.	12e-'/J)	.	12fn'/J)	.
12r	.	12r	.	12r	.	12r	.
(12F'\L	.	(12A-'/L	.	(12d'/L	.	(12b-'\L	.
12F'\J	.	12A-'/J	.	12d'/J	.	12b-'\J	.
=80	=80	=80	=80	=80	=80	=80	=80
12F'\L	<	12A-'/L	<	12dn'/L	.	12b-'\L	<
12F'\	.	12A-'/	.	12e-'/	.	12cc-'\	.
12C-'\J)	.	12A-'/J)	.	12f'/J)	.	12ee-'\J)	.
12r	.	12r	.	12r	.	12r	.
(12BB-/L	.	(12B-/L	.	(12g-/L	>	(12dd-\L	>
12BB-/J)	>	12B-/J)	>	12g-/J)	.	12dd-\J)	.
12r	.	12r	.	12r	.	12r	.
(12AA-/L	.	(12c-\L	>	(12f/L	>	(12cc-\L	.
12AA-/J)	>	12c-\J)	.	12f/J)	>	12cc-\J)	.
=81	=81	=81	=81	=81	=81	=81	=81
12r	.	12r	.	12r	.	8r	.
12GG-/L	.	12d-\L	.	12b-\L	.	.	.
.	.	.	.	.	.	(8b-\L	.
12GG-/J	.	12d-\J	.	12b-\J	.	.	.
12GG-/L	<	12d-\L	.	12b-/L	.	8dd-\	<
12FF/	.	12d-\	<	12a-/	<	.	.
.	.	.	.	.	.	8cc-\	.
12FF/J	.	12d-\J	.	12a-/J	.	.	.
12FF/L	.	12d-\L	.	12a-/L	.	8a-\J)	.
12GG-/	.	12d-\	.	12d-/	.	.	.
.	.	.	.	.	.	(8b-\	.
12GG-/J	.	12d-\J	.	12b-/J	.	.	.
=82	=82	=82	=82	=82	=82	=82	=82
12GG-/L	.	12d-\L	.	12b-/L	.	8dd-\L	.
12FF/	.	12d-\	.	12a-/	.	.	.
.	.	.	.	.	.	8cc-\	.
12FF/J	.	12d-\J	.	12a-/J	.	.	.
12FF/L	.	12d-\L	.	12a-/L	.	8a-\J)	.
12GG-/	.	12d-\	.	12d-/	.	.	.
.	.	.	.	.	.	(8b-\	.
12GG-/J	.	12d-\J	.	12b-/J	.	.	.
12GG-/L	.	12d-\L	.	12b-/L	.	[4dd-\)	.
12EEn/	.	12B-\	.	12a-/	.	.	.
12EE/J	.	12B-\J	.	12a-/J	.	.	.
=83	=83	=83	=83	=83	=83	=83	=83
12EEn/L	.	12B-/L	.	12a-/L	.	8dd-\L]	.
12EE-/	f	12B-/	f	12g/	f	.	.
.	.	.	.	.	.	(8gn\J	.
12EE-/J	.	12B-/J	.	12g/J	f	.	.
12EE-/L	.	12B-/L	.	12g/L	.	4.b-\)	.
12DD-/	.	12G/	.	12f/	.	.	.
12DD-/J	.	12G/J	.	12f/J	.	.	.
12DD-/L	.	12G/L	.	12f/L	.	.	.
12CC/	.	12A-/	.	12e-/	.	.	.
.	.	.	.	.	.	(8e-/	.
12CC/J	.	12A-/J	.	12e-/J	.	.	.
=84	=84	=84	=84	=84	=84	=84	=84
(8CC'/L	>	(8A-'/L	>	(8e-'/L	.	8a-/L	>
8CC'/J	.	8A-'/J	.	8e-'/J	.	8g-/J	.
8r	.	8r	.	8r	.	4f/	.
8DD-'/	.	8A-'/	.	8e-'/	.	.	.
8r	.	8r	.	8r	.	4f-/	.
8EEn'/)	.	8A-'/)	.	8d-'/)	.	.	.
=85	=85	=85	=85	=85	=85	=85	=85
8r	.	8r	.	8r	.	4e-/	.
(8AA-'/L	.	(8A-'/L	.	(8c'/L	>	.	.
8r	>	8r	>	8r	.	4dn/	.
8BB-'/	.	8A-'/	.	8B-'/	.	.	.
8r	.	8r	.	8r	.	4d-/)	.
8E-'/J)	.	8G'/J)	.	8B-'/J)	.	.	.
=86	=86	=86	=86	=86	=86	=86	=86
2.r	.	(8.A-/L	p	(8.c/L	.	(8.c/L	.
.	.	16G/Jk)	.	16e-/Jk)	p	16B-/Jk)	.
.	.	(8.G/L	.	(8.e-/L	.	(8.B-/L	.
.	.	16F/Jk)	.	16a-/Jk)	.	16c/Jk)	.
.	.	4F/	.	[4a-/	.	8c/L	.
.	.	.	.	.	.	([8cc/J	.
=87	=87	=87	=87	=87	=87	=87	=87
4CC/ 4AA-/ 4E-/	.	(8.C/L 8.A-/	.	(8a-/L]	<	8cc\L]	.
.	.	.	.	8c/	.	8a-\J	.
.	.	16B-/Jk)	>	.	.	.	.
4EE-/ 4BB-/ 4G/	.	(8.E-/L 8.B-/	.	8G/	.	8e-/L	.
.	.	.	.	8B-/	.	8d-/J	.
.	.	16c/Jk)	.	.	.	.	.
4AA-\ 4E-\ 4c\	.	4E-/ 4c/	.	8A-/	.	8c/L	.
.	.	.	.	8g-/J)	.	8e-/J)	.
=88	=88	=88	=88	=88	=88	=88	=88
2.r	.	(8.d-\L	.	(8.f/L	.	(8.d-/L	.
.	.	16c\Jk)	.	16a-/Jk)	.	16e-/Jk)	.
.	.	(8.c/L	.	(8.a-\L	.	(8.e-/L	.
.	.	16B-/Jk)	.	16dd-\Jk)	<	16f/Jk)	.
.	.	4B-/	.	4dd-\	.	8f\L	.
.	.	.	.	.	.	(8ff\J	.
=89	=89	=89	=89	=89	=89	=89	=89
4CC/ 4AA-/ 4E-/	.	(8.C/L 8.A-/	>	(8e-/L	>	8aa-\L	.
.	.	.	.	8a-/J	.	8ee-\J	.
.	.	16B-/Jk)	.	.	.	.	.
4EE-/ 4BB-/ 4G/	.	(8.E-/L 8.B-/	.	8g/L	.	8dd-\L	.
.	.	.	.	8d-/J	.	8b-\J	.
.	.	16c/Jk)	.	.	.	.	.
4AA-\ 4E-\ 4c\	.	4E-/ 4c/	.	8c/L	.	8cc\L	.
.	.	.	.	8g-/J)	.	[8a-\J	.
=90	=90	=90	=90	=90	=90	=90	=90
(8.C#/L	.	(8.En/L	.	8f-/	.	8a-/])	.
.	.	.	.	8r	.	8r	.
16BBn/Jk) 16D#/	.	16G#/Jk)	.	.	.	.	.
(8.BB/L 8.D#/	.	(8.G#/L	.	4r	.	4r	.
16AAn/Jk) 16En/	.	16c#/Jk)	.	.	.	.	.
4AA/ 4E/	.	(8c#\L	<	4r	.	4r	.
.	.	8en\J)	.	.	.	.	.
=91	=91	=91	=91	=91	=91	=91	=91
8.EEn/	<	8.Bn\ 8.g#\	.	(8.f-/L	<	(8.a-\L	.
16r	.	16r	.	16e-/Jk) 16g-/	<	16cc-\Jk)	.
4r	.	4r	.	(8.e-/L 8.g-/	.	(8.cc-\L	.
.	.	.	.	16d-/Jk) 16f-/	.	16a-\Jk) 16ff-\	.
4r	.	4r	.	4d-/ 4f-/	.	(8a-\L 8ff-\	.
.	.	.	.	.	.	8aa-\J)	.
=92	=92	=92	=92	=92	=92	=92	=92
4CCn/ 4AA-/ 4E-/	f	(8.Cn/L 8.A-/	f	8c/ 8e-/	.	(12cccn\L	f
.	.	.	.	.	.	12bb-\	.
.	.	.	.	(8cc/L	.	.	.
.	.	.	.	.	.	12aa-\J	.
.	.	16B-/Jk)	.	.	.	.	.
4EE-/ 4BB-/ 4G/	.	4E-/ 4B-/	.	8dd-/	.	12gg\L	.
.	.	.	.	.	.	12ffn\	.
.	.	.	.	8g/	.	.	.
.	.	.	.	.	.	12ee-\J	.
4r	.	4r	.	8b-/	.	12dd-\L	.
.	.	.	.	.	.	12cc\	.
.	.	.	.	8e-/J)	.	.	.
.	.	.	.	.	.	12b-\J)	.
=93	=93	=93	=93	=93	=93	=93	=93
4CC/ 4AA-/ 4E-/	mf	(8.C/L 8.A-/	mf	(8a-/L	>	(12ff\L	.
.	.	.	.	.	.	12ee-\	.
.	.	.	.	8e-/	.	.	.
.	.	.	.	.	.	12dd-\J	.
.	.	16B-/Jk)	.	.	.	.	.
4EE-/ 4BB-/ 4G/	.	4E-/ 4B-/	.	8g/	.	12cc\L	.
.	.	.	.	.	.	12b-\	.
.	.	.	.	8B-/	.	.	.
.	.	.	.	.	.	12a-\J	.
4r	.	4r	.	8d-/	.	12g/L	.
.	.	.	.	.	.	12f/	.
.	.	.	.	8G/J)	.	.	.
.	.	.	.	.	.	12e-/J)	.
=94	=94	=94	=94	=94	=94	=94	=94
4r	.	4r	p	(2G/ 2e-/	p	(2d-/	.
4EE-/ 4BB-/ 4G/	.	(8.E-/L 8.B-/	p	.	.	.	.
.	.	16c/Jk)	.	.	.	.	.
4AA-/ 4E-/	p	4E-/ 4c/	.	&(4A-/&)) 4e-/	>	4c/)	.
=95	=95	=95	=95	=95	=95	=95	=95
4r	.	4r	.	(2G/ 2e-/	.	(2d-/	.
4EE-/ 4BB-/ 4G/	.	(4E-'/ 4B-'/	.	.	.	.	.
4AA-/ 4E-/	.	4E-'/) 4c'/	.	&(4A-/&)) 4e-/	>	4c/)	.
=96	=96	=96	=96	=96	=96	=96	=96
4r	.	4r	.	4r	.	4r	.
2AA-;/ 2E-;/	pp	2E-;/ 2c;/	pp	4A-/ 4e-/	.	4c/	.
.	.	.	.	4r;	.	4r;	.
==	==	==	==	==	==	==	==
*-	*-	*-	*-	*-	*-	*-	*-
!!!ENC: Craig Stuart Sapp
!!!END: 2008/02/11/
